img/icon-designer.svg

<?xml version="1.0" encoding="UTF-8" standalone="no"?>
<svg width="48px" height="48px" viewBox="0 0 48 48" version="1.1" xmlns="http://www.w3.org/2000/svg" xmlns:xlink="http://www.w3.org/1999/xlink">
    <!-- Generator: Sketch 49.1 (51147) - http://www.bohemiancoding.com/sketch -->
    <title>UX/UI</title>
    <desc>Created with Sketch.</desc>
    <defs></defs>
    <g id="Website" stroke="none" stroke-width="1" fill="none" fill-rule="evenodd">
        <g id="Home" transform="translate(-298.000000, -1441.000000)" fill="#8C43FF">
            <path d="M337.929103,1485.06708 L342.132759,1480.86455 L343.39408,1486.3284 L337.929103,1485.06708 Z M323.624747,1471.33318 L322.033749,1469.74219 L317.259629,1464.96807 L315.668631,1463.37707 L305.81997,1453.52841 L310.592964,1448.75429 L320.441625,1458.60295 L322.033749,1460.19395 L326.806743,1464.96807 L328.397741,1466.55906 L340.82643,1478.98775 L336.053435,1483.76187 L323.624747,1471.33318 Z M307.853162,1483.92165 L304.082699,1485.5374 L301.46329,1482.91799 L303.080167,1479.14528 L315.667506,1466.55906 L320.441625,1471.33318 L307.853162,1483.92165 Z M301.039099,1448.74754 C300.607032,1448.31434 300.608157,1447.60098 301.04585,1447.16216 L304.227846,1443.98017 C304.67004,1443.5391 305.376651,1443.53797 305.813219,1443.97342 L309.001966,1447.16216 L304.227846,1451.93628 L301.039099,1448.74754 Z M335.394083,1446.83361 L340.168202,1451.60661 L328.397741,1463.37707 L323.624747,1458.60182 L335.394083,1446.83361 Z M341.363139,1443.25105 C341.366514,1443.2488 341.357513,1443.2488 341.366514,1443.25781 L343.74401,1445.6353 C343.750761,1445.64205 343.750761,1445.63755 343.750761,1445.63868 L340.566514,1448.8218 L338.180017,1446.4353 L341.363139,1443.25105 Z M344.009551,1478.98775 L329.989865,1464.96807 L339.342323,1455.61561 L340.218835,1456.49324 C340.658779,1456.93319 340.658779,1457.64542 340.216585,1458.08762 L335.801396,1462.50168 C335.362578,1462.94163 335.362578,1463.65386 335.801396,1464.09268 C336.24134,1464.53262 336.953576,1464.53262 337.392394,1464.09268 L341.807583,1459.67974 C343.128539,1458.35879 343.129664,1456.22095 341.810958,1454.90225 L340.933322,1454.02461 L341.7592,1453.19761 L343.350199,1451.60661 L342.157512,1450.41392 L345.341759,1447.22967 C346.225022,1446.34416 346.216021,1444.92532 345.335008,1444.04318 L342.957512,1441.66568 C342.067498,1440.77567 340.649777,1440.78242 339.77214,1441.66006 L336.587894,1444.8443 L335.394083,1443.65049 L333.803084,1445.24149 L333.801959,1445.24149 L333.801959,1445.24261 L322.033749,1457.01083 L307.404217,1442.38242 C306.086636,1441.06596 303.955554,1441.07046 302.636848,1442.38917 L299.454852,1445.57117 C298.140647,1446.88537 298.132771,1449.02433 299.448101,1450.33853 L302.636848,1453.52728 L302.940646,1453.83108 L304.227846,1455.11941 L314.076508,1464.96807 L301.181996,1477.86258 L298.795499,1483.4322 L300.386497,1485.02319 L298,1487.40969 L299.590998,1489.00069 L301.977495,1486.61419 L303.569619,1488.20519 L309.139237,1485.81869 L322.033749,1472.92418 L334.461312,1485.35287 L336.05231,1486.94387 L344.203082,1488.82516 C345.404769,1489.10196 346.169888,1488.34809 345.88972,1487.1374 L344.009551,1478.98775 Z" id="UX/UI"></path>
        </g>
    </g>
</svg>

<?xml version="1.0" encoding="utf-8"?>
<!-- Generator: Adobe Illustrator 17.0.0, SVG Export Plug-In . SVG Version: 6.00 Build 0)  -->
<!DOCTYPE svg PUBLIC "-//W3C//DTD SVG 1.1//EN" "http://www.w3.org/Graphics/SVG/1.1/DTD/svg11.dtd">
<svg version="1.1" id="Camada_1" xmlns="http://www.w3.org/2000/svg" xmlns:xlink="http://www.w3.org/1999/xlink" x="0px" y="0px"
	 width="48px" height="48px" viewBox="0 0 48 48" enable-background="new 0 0 48 48" xml:space="preserve">
<title>UX/UI</title>
<desc>Created with Sketch.</desc>
<g id="Website">
	<g id="Home" transform="translate(-298.000000, -1441.000000)">
		<path id="UX_x2F_UI" fill="#04233A" d="M337.929,1485.067l4.204-4.203l1.261,5.464L337.929,1485.067z M323.625,1471.333
			l-1.591-1.591l-4.774-4.774l-1.591-1.591l-9.849-9.849l4.773-4.774l9.849,9.849l1.592,1.591l4.773,4.774l1.591,1.591
			l12.429,12.429l-4.773,4.774L323.625,1471.333z M307.853,1483.922l-3.77,1.616l-2.619-2.619l1.617-3.773l12.587-12.586
			l4.774,4.774L307.853,1483.922z M301.039,1448.748c-0.432-0.433-0.431-1.147,0.007-1.585l3.182-3.182
			c0.442-0.441,1.149-0.442,1.585-0.007l3.189,3.189l-4.774,4.774L301.039,1448.748z M335.394,1446.834l4.774,4.773l-11.77,11.771
			l-4.773-4.775L335.394,1446.834z M341.363,1443.251c0.003-0.002-0.006-0.002,0.003,0.007l2.378,2.377
			c0.007,0.007,0.007,0.002,0.007,0.003l-3.184,3.183l-2.387-2.386L341.363,1443.251z M344.01,1478.988l-14.02-14.02l9.352-9.352
			l0.877,0.878c0.44,0.44,0.44,1.152-0.002,1.594l-4.415,4.414c-0.439,0.44-0.439,1.152,0,1.591c0.44,0.44,1.152,0.44,1.591,0
			l4.415-4.413c1.321-1.321,1.322-3.459,0.003-4.777l-0.878-0.878l0.826-0.827l1.591-1.591l-1.193-1.193l3.184-3.184
			c0.883-0.885,0.874-2.304-0.007-3.186l-2.378-2.378c-0.89-0.89-2.308-0.883-3.185-0.006l-3.184,3.184l-1.194-1.194l-1.591,1.591
			h-0.001v0.001l-11.768,11.768l-14.63-14.628c-1.318-1.317-3.449-1.312-4.767,0.007l-3.182,3.182
			c-1.314,1.314-1.322,3.453-0.007,4.767l3.189,3.189l0.304,0.304l1.287,1.288l9.849,9.849l-12.895,12.895l-2.387,5.57l1.591,1.591
			L298,1487.41l1.591,1.591l2.387-2.387l1.592,1.591l5.57-2.386l12.895-12.895l12.428,12.429l1.591,1.591l8.151,1.881
			c1.202,0.277,1.967-0.477,1.687-1.688L344.01,1478.988z"/>
	</g>
</g>
</svg>
